X: 2
T:Merrily Kiss the Quaker's Wife
O:Gerry's Jig after The Fairy Child
R:single jig
Q:3/8=115
M:6/8
L:1/8
K:G
D|"G"GAB D2 B|"Am"c2A "Em"BGE|"G"GAB DEG|"D"~A3 "Am"AGE|"G"GAB D2 B|"Am"c2A "Em"BGE|"G"GAB D2 E|G3 G2:|
|:c|"G"BGG AGG|BGG "Am"AGE|"G"GAB DEG|"D"A3 AGA|"G"BGG AGG|BGG "Am"AGE|"G"GAB D2 E|G3 G2:|
|:d|"G"~g3 "D"aga|"Em"bge "G"dBd|~g3 gab|"D"~a3 aba|"G"gbg "D"faf|"Em"ege "G"dBA|GAB D2E|G3 G2:|
